src/svgicons/partners/logos_basecamp.svg

<svg width="106" height="88" viewBox="0 0 106 88" fill="none" xmlns="http://www.w3.org/2000/svg">
<path d="M53.1227 0C24.7015 0 2.43487 36.08 0.328125 66.5536C9.24703 81.9982 30.7547 87.8038 53.1236 87.8038C75.4908 87.8038 96.9997 81.9982 105.914 66.5532C103.807 36.08 81.5432 0 53.1232 0" fill="#B6DEFF"/>
<path d="M98.4892 59.2947C98.4892 59.2947 92.212 45.7535 85.8317 37.8533C79.4469 29.9498 71.6497 21.344 67.0395 21.344C62.4318 21.344 49.5512 44.0992 43.6421 44.0992C37.7318 44.0992 34.6602 33.7838 27.3939 33.7838C20.1246 33.7838 8.57555 58.6589 8.57555 58.6589L7.79297 62.8759C7.79297 62.8759 11.8052 80.625 53.7804 80.625C95.7572 80.625 99.112 63.1671 99.112 63.1671L98.4896 59.2943" fill="#66CC66"/>
<path d="M44.3009 53.8101C37.7819 53.8101 34.44 47.3923 32.6281 43.4307C30.9987 39.8619 30.7168 34.2275 26.0938 34.0696C26.548 33.8899 26.9852 33.7837 27.3951 33.7837C34.6615 33.7837 37.733 44.0992 43.6434 44.0992C49.5525 44.0992 62.4331 21.3435 67.0408 21.3435C67.9091 21.3435 68.8871 21.6492 69.9483 22.1929C69.1633 22.0896 68.1567 22.1615 67.3811 22.9378C65.8918 24.4243 52.3714 53.8101 44.3009 53.8101Z" fill="#17AD49"/>
</svg>

<svg width="106" height="88" fill="none" xmlns="http://www.w3.org/2000/svg"><path d="M53.123 0C24.702 0 2.435 36.08.328 66.554c8.919 15.444 30.427 21.25 52.796 21.25 22.367 0 43.876-5.806 52.79-21.25C103.807 36.08 81.544 0 53.124 0" fill="#B6DEFF"/><path d="M98.49 59.295s-6.278-13.541-12.658-21.442C79.447 29.95 71.65 21.344 67.04 21.344c-4.608 0-17.489 22.755-23.398 22.755-5.91 0-8.982-10.315-16.248-10.315-7.27 0-18.818 24.875-18.818 24.875l-.783 4.217s4.012 17.749 45.987 17.749c41.977 0 45.332-17.458 45.332-17.458l-.622-3.873" fill="#6C6"/><path d="M44.3 53.81c-6.518 0-9.86-6.418-11.672-10.38-1.63-3.568-1.911-9.203-6.534-9.36.454-.18.891-.286 1.301-.286 7.266 0 10.338 10.315 16.248 10.315 5.91 0 18.79-22.755 23.398-22.755.868 0 1.846.305 2.907.849-.785-.103-1.791-.032-2.567.745-1.49 1.486-15.01 30.872-23.08 30.872z" fill="#17AD49"/></svg>
